icons/svg/16x16/emoji activated/filled.svg

<svg xmlns="http://www.w3.org/2000/svg" width="16" height="16" viewBox="0 0 16 16">
  <path fill-rule="evenodd" d="M11.8184,9.4258 C11.4144,10.2528 10.2894,11.9998 8.0004,11.9998 C5.7114,11.9998 4.5864,10.2528 4.1814,9.4258 C4.0854,9.2278 4.2354,8.9998 4.4554,8.9998 L11.5454,8.9998 C11.7654,8.9998 11.9154,9.2278 11.8184,9.4258 M6.0004,4.9998 C6.5524,4.9998 7.0004,5.6718 7.0004,6.4998 C7.0004,7.3278 6.5524,7.9998 6.0004,7.9998 C5.4474,7.9998 5.0004,7.3278 5.0004,6.4998 C5.0004,5.6718 5.4474,4.9998 6.0004,4.9998 M10.0004,4.9998 C10.5524,4.9998 11.0004,5.6718 11.0004,6.4998 C11.0004,7.3278 10.5524,7.9998 10.0004,7.9998 C9.4474,7.9998 9.0004,7.3278 9.0004,6.4998 C9.0004,5.6718 9.4474,4.9998 10.0004,4.9998 M14.6094,4.3278 C14.2914,2.8568 13.1434,1.7088 11.6724,1.3908 C10.4884,1.1348 9.2594,0.9998 8.0004,0.9998 C6.7404,0.9998 5.5114,1.1348 4.3284,1.3908 C2.8564,1.7078 1.7094,2.8568 1.3904,4.3278 C1.1344,5.5118 1.0004,6.7398 1.0004,7.9998 C1.0004,9.2598 1.1344,10.4878 1.3904,11.6718 C1.7094,13.1438 2.8564,14.2908 4.3284,14.6098 C5.5114,14.8648 6.7404,14.9998 8.0004,14.9998 C9.2594,14.9998 10.4884,14.8648 11.6724,14.6098 C13.1434,14.2908 14.2914,13.1438 14.6094,11.6718 C14.8654,10.4878 15.0004,9.2598 15.0004,7.9998 C15.0004,6.7398 14.8654,5.5118 14.6094,4.3278"/>
</svg>

<svg width="16" height="16" fill="none" xmlns="http://www.w3.org/2000/svg">
  <path fill-rule="evenodd" clip-rule="evenodd" d="M11.818 9.426C11.414 10.253 10.29 12 8 12s-3.414-1.747-3.819-2.574A.3.3 0 014.455 9h7.09c.22 0 .37.228.273.426zM6 5c.552 0 1 .672 1 1.5S6.552 8 6 8c-.553 0-1-.672-1-1.5S5.447 5 6 5zm4 0c.552 0 1 .672 1 1.5S10.552 8 10 8c-.553 0-1-.672-1-1.5S9.447 5 10 5zm4.61-.672a3.832 3.832 0 00-2.938-2.937A17.364 17.364 0 008 1c-1.26 0-2.489.135-3.672.39A3.832 3.832 0 001.39 4.329 17.356 17.356 0 001 8c0 1.26.134 2.488.39 3.672a3.835 3.835 0 002.938 2.938 17.43 17.43 0 007.344 0 3.834 3.834 0 002.937-2.938 17.422 17.422 0 00.001-7.344z" fill="#000"/>
</svg>
